src/assets/logo/dell.svg

<?xml version="1.0" encoding="UTF-8" standalone="no"?><!DOCTYPE svg PUBLIC "-//W3C//DTD SVG 1.1//EN" "http://www.w3.org/Graphics/SVG/1.1/DTD/svg11.dtd"><svg width="100%" height="100%" viewBox="0 0 540 200" version="1.1" xmlns="http://www.w3.org/2000/svg" xmlns:xlink="http://www.w3.org/1999/xlink" xml:space="preserve" xmlns:serif="http://www.serif.com/" style="fill-rule:evenodd;clip-rule:evenodd;stroke-linejoin:round;stroke-miterlimit:1.41421;"><g id="dell"><path d="M238.269,26.039l-74.984,57.679c-7.691,-28.835 -32.68,-49.999 -63.447,-49.999l-53.838,0l0,132.641l53.838,0c30.764,0 57.679,-21.141 63.446,-49.975l74.979,57.654l75.004,-57.654l0,49.975l84.586,0l0,-26.913l-55.741,0l0,-105.728l-30.771,0l0,49.975l-71.148,57.707l-15.387,-13.457l34.623,-26.937l36.525,-28.814l-21.138,-17.285l-71.147,55.729l-15.387,-13.457l71.151,-53.826l-21.164,-17.285l0,-0.023l0,-0.007Zm-163.42,34.593l23.067,0c4.807,0 9.504,1.08 13.831,3.063c4.327,1.982 8.285,4.864 11.65,8.468c3.365,3.604 6.13,7.918 8.052,12.784c1.923,4.866 2.994,10.288 2.994,16.056c0,5.286 -0.966,10.445 -2.738,15.219c-1.775,4.775 -4.344,9.176 -7.589,12.899c-3.245,3.726 -7.163,6.777 -11.58,8.91c-4.416,2.133 -9.331,3.317 -14.62,3.317l-23.067,0l0,-80.716Zm419.15,78.821l0,26.913l-84.6,0l0,-132.641l30.764,0l0,105.723l53.837,0l-0.001,0.005Z" style="fill:#a0a0a0;fill-rule:nonzero;"/></g></svg>

<?xml version="1.0" encoding="UTF-8" standalone="no"?>
<!DOCTYPE svg PUBLIC "-//W3C//DTD SVG 1.1//EN" "http://www.w3.org/Graphics/SVG/1.1/DTD/svg11.dtd">
<svg width="100%" height="100%" viewBox="0 0 540 200" version="1.1" xmlns="http://www.w3.org/2000/svg" xmlns:xlink="http://www.w3.org/1999/xlink" xml:space="preserve" xmlns:serif="http://www.serif.com/" style="fill-rule:evenodd;clip-rule:evenodd;stroke-linejoin:round;stroke-miterlimit:2;">
    <g id="dell">
        <path d="M238.269,26.039L163.285,83.718C155.594,54.883 130.605,33.719 99.838,33.719L46,33.719L46,166.36L99.838,166.36C130.602,166.36 157.517,145.219 163.284,116.385L238.263,174.039L313.267,116.385L313.267,166.36L397.853,166.36L397.853,139.447L342.112,139.447L342.112,33.719L311.341,33.719L311.341,83.694L240.193,141.401L224.806,127.944L259.429,101.007L295.954,72.193L274.816,54.908L203.669,110.637L188.282,97.18L259.433,43.354L238.269,26.069L238.269,26.039ZM74.849,60.632L97.916,60.632C102.723,60.632 107.42,61.712 111.747,63.695C116.074,65.677 120.032,68.559 123.397,72.163C126.762,75.767 129.527,80.081 131.449,84.947C133.372,89.813 134.443,95.235 134.443,101.003C134.443,106.289 133.477,111.448 131.705,116.222C129.93,120.997 127.361,125.398 124.116,129.121C120.871,132.847 116.953,135.898 112.536,138.031C108.12,140.164 103.205,141.348 97.916,141.348L74.849,141.348L74.849,60.632ZM493.999,139.453L493.999,166.366L409.399,166.366L409.399,33.725L440.163,33.725L440.163,139.448L494,139.448L493.999,139.453Z" style="fill:rgb(208,208,208);fill-rule:nonzero;"/>
    </g>
</svg>
